src/assets/icons/letters,fancy,serif-c.svg

<svg width="48" height="48" viewBox="0 0 48 48" fill="none" xmlns="http://www.w3.org/2000/svg">
<path d="M35.2244 7.74H37.0864L36.3264 17.354H34.8064C34.2744 15.0233 33.2357 13.1867 31.6904 11.844C30.1704 10.5013 28.3211 9.83 26.1424 9.83C24.6477 9.83 23.3177 10.134 22.1524 10.742C20.9871 11.3247 19.9991 12.1733 19.1884 13.288C18.4031 14.3773 17.7951 15.72 17.3644 17.316C16.9591 18.8867 16.7564 20.66 16.7564 22.636C16.7564 26.5627 17.5544 29.59 19.1504 31.718C20.7717 33.8207 23.1531 34.872 26.2944 34.872C28.8277 34.872 30.9177 34.188 32.5644 32.82C34.2364 31.452 35.4271 29.4127 36.1364 26.702H37.8084V37H36.0224L35.4904 33.998C32.7037 36.2527 29.3217 37.38 25.3444 37.38C23.0391 37.38 20.9491 37.038 19.0744 36.354C17.1997 35.67 15.6037 34.7073 14.2864 33.466C12.9691 32.1993 11.9431 30.6667 11.2084 28.868C10.4991 27.0693 10.1444 25.068 10.1444 22.864C10.1444 20.5587 10.5244 18.456 11.2844 16.556C12.0444 14.656 13.1084 13.022 14.4764 11.654C15.8697 10.286 17.5164 9.23467 19.4164 8.5C21.3417 7.74 23.4697 7.36 25.8004 7.36C27.3457 7.36 28.7897 7.57533 30.1324 8.006C31.4751 8.43667 32.9317 9.13333 34.5024 10.096L35.2244 7.74Z" fill="black"/>
</svg>

<svg xmlns="http://www.w3.org/2000/svg" width="48" height="48" fill="none" viewBox="0 0 48 48">
  <path fill="#000" d="M35.224 7.74h1.862l-.76 9.614h-1.52c-.532-2.33-1.57-4.167-3.116-5.51-1.52-1.343-3.369-2.014-5.548-2.014-1.494 0-2.824.304-3.99.912-1.165.583-2.153 1.431-2.964 2.546-.785 1.09-1.393 2.432-1.824 4.028-.405 1.57-.608 3.344-.608 5.32 0 3.927.798 6.954 2.394 9.082 1.622 2.103 4.003 3.154 7.144 3.154 2.534 0 4.624-.684 6.27-2.052 1.672-1.368 2.863-3.407 3.572-6.118h1.672V37h-1.786l-.532-3.002c-2.786 2.255-6.168 3.382-10.146 3.382-2.305 0-4.395-.342-6.27-1.026-1.874-.684-3.47-1.647-4.788-2.888-1.317-1.267-2.343-2.8-3.078-4.598-.709-1.799-1.064-3.8-1.064-6.004 0-2.305.38-4.408 1.14-6.308.76-1.9 1.824-3.534 3.192-4.902 1.394-1.368 3.04-2.42 4.94-3.154 1.926-.76 4.054-1.14 6.384-1.14 1.546 0 2.99.215 4.332.646 1.343.43 2.8 1.127 4.37 2.09l.722-2.356z"/>
</svg>
